X: 6397
T: Castle Kelly
R: reel
M: 4/4
K: Aminor
|:AEcA AEcA|GEDE G2EG|AEcA GAcd|ecdB cAA2|
AEcA AEcA|GEDE G2EG|AEcA GAcd|1 eged cAA2:|2 eged cAA(3e/f/g/||
|:agec d2ed|cAGE G3e|agec d2cd|eaag a2g2|
agec dfed|cAGE G2EG|AEcA GAcd|1 eged cAA(3e/f/g/:|2 eged cAA2||

